X:205
T: Milesian, The
R: polka 32 march
%R: march, reel
B: Chas & Sam Thompson "Twenty Four Country Dances for the Year 1778", London 1778, p.72 #1
F: http://www.vwml.org/browse/browse-collections-dance-tune-books/browse-thompsons1778#
Z: 2014 John Chambers <jc:trillian.mit.edu> (added dance description)
M: 2/4
L: 1/8
K:Bb
B |\
BF-Fd | dB-Bf | edcB AB/c/ FG/A/ |\
BF-Fd | dB-Bf | dBcA | B3 :|
|: f |\
gfbf | gfba | gfed | cc/d/ cf |\
gfbf | gfbg | fedc | B2B/c/ B2 :|

